X:1
T:Discumbentibus
T:Discumbentibus
T:Leonhard Paminger
C:Leonhard Paminger
%%score [ 1 [ 2 3 ] 4 ]
L:1/8
Q:1/4=120
M:2/2
K:F
V:1 treble nm="Soprano" snm="S"
V:2 treble-8 nm="Tenor 1" snm="T 1"
V:3 treble-8 nm="Tenor 2" snm="T 2"
V:4 bass nm="Bass" snm="B"
V:1
 z4 c4- | c2 c2 c2 c2 | c4 c4 | A4 z2 A2 | B2 B2 G4 | A6 A2 | A4 z2 G2 | A3 B c2 c2 | c8- | c8 | %10
w: Dis-|* cum- ben- ti-|bus il-|lis un-|de- cim a-|po- sto-|lis, ap-|pa- * * u-|it|_|
 z4 c4 |"^-natural" B4 B4 | G2 B2 G2 B2- | BAGF G2 G2 | A3 B c4 | F3 G A4 | z8 | z8 | z8 | z8 | %20
w: Je-|sus, et|ex- pro- ba- vit|_ _ _ _ _ il-||* * lis,|||||
 z4 e4 | f4 f4 | e4 c4 | d4 f4 | e4 c4 | d2 d2 f4 | e4 c4 | d2 d2 d4 | c4 A4 | B2 B2 B4 | %30
w: quod|his qui|i- psum|vi- dis-|sent re-|sur- re- xis-|se non|cre- di- dis-|sent, non|cre- di- dis-|
 A2 c2 B2 A2- | AG F4 E2 | F8- | F8 | z8 | z4 F4- | F2 F2 G2 G2 | A4 F4 | z2 B2 G2 c2- | %39
w: sent, non cre- di-|* * dis- *|sent,|_||et|_ di- ce- bat|il- lis,|et di- ce-|
 c2 A2 d2 B2 |"^-natural" G2 c4 B2 | c4 A4- | A4 A4 | z2 c2 B2 B2 | G4 A4 | B4 c4 | z2 F2 G2 G2 | %47
w: * bat i- *||lis: I-|* te|in u- ni-|ver- sum|mun- dum,|et prae- di-|
 A4 F4 | G2 G2 A2 A2 | F2 B2 G2 G2 | A2 A2 F2 B2 | G2 G2 c3 B | AG F2 G2 E2 | F2 D2 E2 G2- | %54
w: ca- te|E- van- ge- li-|um o- mni cre-|a- tu- rae, o-|mni cre- a- *|* * tu- * *||
 GF F4 E2 | F8- | F8 | z4 c4- | c2 A2 B2 G2 | F4 z4 | z8 | F4 B2 B2 | A4 F4 | c2 c2 c4 | z8 | z8 | %66
w: |rae.|_|Qui|_ cre- di- de-|rit,||et ba- pti-|za- tus|fu- e- rit,|||
 z4 c4 | d6 c2 | B2 A2 G4 | G4 c4- | c2 B2 A2 G2 | F4 A4 | B3 A G4- |"^#""^#" G2 FE F4 | G8 | %75
w: sal-|vus e-|rit, sal- vus|e- rit,|_ sal- vus e-|rit, sal-|vus _ _|_ _ _ e-|rit.|
 G4 A2 c2- | c2 BA G2 A2- | AG F4 E2 | F8 | z2 A2 A4 | F4 z2 c2 | c6 A2 | B2 c2 A2 A2 | F4 z4 | %84
w: Al- le- *||* * * lu-|ia.|Qui ve-|ro, qui|ve- ro|non cre- di- de-|rit,|
 z8 | z4 z2 f2 | f6 d2 | e2 f2 d2 d2 | e4 c4 | c4 d4- | d4 c4 | B4 c4- | c2 BA B2 B2 | c8 || z8 | %95
w: |qui|ve- ro|non cre- di- de-|rit, con-|dem- na-|* bi-|tur, con|_ dem- * na- bi-|tur.||
 z8 | z8 | z8 | z8 |"^SECUNDA\n     PARS" z8 | z4 c4 | c2 c2 B2 G2 | A3 B c4 | c4 z2 G2 | %104
w: |||||Si-|gna e- os qui|in me cre-|dunt, haec|
 A2 B2 c2 d2- |"^-natural" dc c4 B2 | c4 c4 | c2 c2 c4 | c4 c4 | B4 G4 | A4 c4 | B4 G4 | A4 z2 A2 | %113
w: se- quen- * *||tur: Per|no- men me-|um dae-|mo- ni-|a e-|ji- ci-|ent, lin-|
 B2 B2 B4 | c4 B4 | A4 z2 A2 | c2 c2 B4 |[M:3/2] A8 z4 | A4 A4 F4 | G4 A4 F4- | F4 G4 G4 | A8 z4 | %122
w: guis lo- quent|no- *|vis, ser-|pen- tes tol-|lent.|Et si quid|lae- ta- le|_ bi- be-|rint,|
 G4 A4 F4 | G4 G4 A4 | A4 B8 | A4 G8 | F8 E4 | F8 c4 | c4 A4 B4 | c4 A4 B4 | B4 c8 | z12 | z12 | %133
w: lae- ta- le|bi- be- rint,|non e-|is no-|ce- *|bit, su-|per ae- gros|ma- nus im-|po- nent,|||
 z8 c4 | d8 c4 | B4 d8 |"^-natural" c8 B4 |[M:2/2] c4 A4- | A2 A2 A4 | z2 A2 c2 G2 | B4 A4 | z8 | %142
w: et|be- ne|ha- be-||bunt. I-|* ta- que|Do- mi- nus|qui- dem||
 z2 A2 c2 G2 | B2 B2 A2 F2 | G6 F2 | F4 z4 | z8 | f4 f4- | f4 c4 | z4 f4 | f4 f4 | e8 | z4 e4 | %153
w: post- quam lo-|cu- tus est, lo-|cu- tus|est,||as- sum-|* ptus,|as-|sum- ptus|est|in|
 d2 f3 e d2- |"^#""^-natural""^#" d2 cB c4 | d8- | d8- | d8 | z8 | z8 | z8 | f8 | f4 d4 | z4 d4 | %164
w: coe- * * *||lum,|_|||||et|se- det|ad|
 f6 e2 | d2 c2 d2 e2- |"^-natural" ed c4 B2 | c4 z4 | A6 A2 | A4 c4 | c4 B4 | A4 z2 A2 | %172
w: dex- tris|_ _ _ De-||i.|ll- li|ve- ro|e- gres-|si prae-|
 A2 A2 c2 c2 | B2 B2 A4 | G6 G2 | G4 z2 G2 | G2 G2 A4 | F4 G4 | G2 G4 G2 | G2 G2 A4 | F4 G4 | %181
w: di- ca- ve- runt|u- bi- que|Do- mi-|no co-|o- pe- ran-|te, et|ser- mo- nem|con- fir- ma-|te se-|
 G4 A4 | B6 A2 | G4 F4- | F2 ED E4 | F4 A4 | B4 B4 | A4 c4- | c4 B4 | G4 A4- | A2 G2 F4- | %191
w: quen- ti-|bus si-|||gnis, se-|quen- ti-|bus si-||||
 F2 ED E4 | F8- | F8 |] %194
w: |gnis.|_|
V:2
 z8 | z4 f4- | f2 f2 f2 f2 | f4 f4 | d4 z2 e2 | c2 c2 f4- | f2 ed e2 e2 | f3 g a2 a2 | a2 a2 g4 | %9
w: |Dis-|* cum- ben- ti-|bus il-|lis un-|de- cim a-|* po- * sto- lis|_ _ _ ap-|pa- ru- it|
 g4 a2 g2 | ag g4 f2 | g8 | z2 g2 g2 g2 | g2 g2 d3 e | f3 e c2 e2 | d4 c4 | z8 | z8 | z8 | z8 | %20
w: Je- sus, Je-||sus,|et ex- pro-|ba- vit il- *||* lis,|||||
 z4 c4 | d4 d4 | g4 e4 | f4 d4 | g4 e4 | f2 f2 f4 | e2 g2 f2 f2 | f4 f4- | f4 f4 | f2 f2 f4 | %30
w: quod|his qui|i- psum|vi- dis-|sent re-|sur- re- xis-|se non- cre- di-|dis- sent,|_ non|cre- di- dis-|
 f2 e2 g2 c2- | cB B2 c4 | c4 z4 | c6 c2 | d2 d2 e4 | c2 f3 e dc | de f4 e2 | f2 F3 G A2 | %38
w: sent, non cre- di-|* * dis- *|sent,|et di-|ce- bat il-|lis, et di- ce- *|bat _ il- *|lis, et _ _|
 G4 c2 A2- | A2 F2 B2 G2 | c2 A2 G4 | z4 c4- | c4 c4- | c2 A2 B2 B2 | c4 F4 | z4 c4 | d2 d2 e4 | %47
w: di- ce- *|* bat il- *|* * lis:|I-|* te|_ in u- ni-|ver- sum,|in|u- ni- ver-|
 f4 d4 | c4 z2 f2 | d2 g2 c2 c2 | f2 f2 d2 g2 | c4 z2 A2 | c2 d4 c2- | c2 B2 c2 G2 | c2 d2 c4 | %55
w: sum mun-|dum et|prae- di- ca- te|E- van- ge- li-|um o-|mni cre- a-|* tu- * *||
 c4 z4 | c6 c2 | d2 e2 f4 | z8 | c4 d2 d2 | c2 A2 Bcdc | de f4 e2 | f2 F2 B2 B2 | A2 F2 c3 d | %64
w: rae.|Qui cre-|di- de- rit||et ba- pti-|za- tus fu- * * *|* * * e-|rit, et ba- pti-|za- tus fu- *|
 ef g2 c2 g2- | gf f4 e2 | f4 f4 | f8 | z4 B4 | _e8 | c4 f4 | B4 f4 | d4 e4 | d8 | B8 | e4 c4 | %76
w: |* * * e-|rit, sal-|vus,|sal-|vus|e- rit,|sal- vus|e- *||rit.|Al- le-|
 f2 d2 e2 c2- | cB A2 c4 | c4 z2 A2 | A4 F2 f2 | f6 e2 | c4 c4 | d2 e2 f2 d2 | d2 Bc de f2 | %84
w: |* * * lu-|ia. Qui|ve- ro, qui|ve- ro|non cre-|di- de- rit, qui|ve- ro _ _ _ _|
 g2 c2 de f2- | f2 e2 f2 a2 | a4 f2 g2- | g2 a2 f2 g2 | g4 a4- | a4 f4 | b4 g4- | g4 f4 | g8 | %93
w: non cre- di- * de-|* * rit, qui|ve- ro non|_ cre- di- de-|rit, con-|* dem-|na- *||bi-|
 g8 || z4 g4 | g2 g2 f2 d2 | e3 f g4 | g4 z2 d2 | e2 f2 g3 f | de f4 e2 | f4 z4 | z8 | z8 | z8 | %104
w: tur.|Si-|gna e- os qui|in me dre-|dunt haec|se- quen- * *||tur:||||
 z8 | z8 | z4 f4 | f2 f2 f4 | e4 c4 | d4 e4 | f4 c4 | d4 e4 | f4 z2 f2 | f2 f2 f4 | f8 | f4 z2 f2 | %116
w: ||Per|no- men me-|um dae-|mo- ni-|a e-|ji- ci-|ent, lin-|guis lo- quent|no-|vis, ser-|
 f2 f2 f4 |[M:3/2] f8 z4 | f4 f4 d4 | e4 c4 d4- | d4 e4 e4 | f8 z4 | z12 | z12 | f4 f8 | %125
w: pen- tes tol-|lent.|Et si quid|lae- ta- le|_ bi- be-|rint,|||non e-|
 f4 d4 _e4 | c4 c8 | c12 | z12 | z12 | z4 c4 c4 | A4 B4 c4 | A4 B4 B4 | c8 f4 | f6 g2 a4 | d12 | %136
w: is no- *|* ce-|bit,|||su- per|ae- gros ma-|nus im- po-|nent, et|be- ne- ha-|be-|
 g12 |[M:2/2] e4 f4- | f2 f2 f4- | f4 z2 e2 | g2 d2 f4 | e4 z4 | z4 z2 e2 | g2 d2 f2 f2 | e4 d4 | %145
w: |bunt. I-|* ta- que|_ Do-|mi- nus qui-|dem,|post-|quam lo- cu- tus|est e-|
 c4 z2 g2 | g4 e4 | a8 | a8- | a8 | a8 | g8 | g6 e2 | f2 d2 f2 g2 | e8 | d4 z4 | f4 f4- | f4 f4 | %158
w: is, as-|sum- ptus,|as-|sum-||ptus|est|in coe-|||lum,|as- sum-|* ptus|
 f4 e4- | e2 c2 d2 f2- | fe d4 c2 | d8 | d4 f4- | f4 f4 | a4 a4 | a2 g2 b2 g2- | g2 f2 g4 | e4 z4 | %168
w: est in|_ coe- lum, et|_ _ se- det|ad|dex- tris|_ De-|i, et|se- det ad dex-|* tris De-|i.|
 f6 f2 | f4 c2 f2 | ec f4 e2 | f4 z2 f2 | f2 f2 f2 f2 | f2 f2 f4 | e6 e2 | e4 z2 e2 | e2 e2 f4- | %177
w: Il- li|ve- ro e-|gres- * * *|si prae-|di- ca- ve- runt|u- bi- que|Do- mi-|no co-|o- pe- ran-|
 f4 d4 | (3:2:2e4 e2 e2 e2 | e2 e2 f4- | f4 d4 | e4 f4- | f4 f4 | _e4 c4 | c8 | z4 f4 | f4 f4 | %187
w: * te,|et ser- mo- nem|con- fir- ma-|* te|se- quen-|* ti-|bus si-|gnis,|se-|quen ti-|
 f8- | f4 d4 | e4 c4- | c2 BA B4 | c8 | A4 d4 | c8 |] %194
w: bus|_ si-|||||gnis.|
V:3
 c6 c2 | c2 c2 c4 | c4 A4 | z2 c2 d2 d2 | B4 c4- | c2 c2 c4 | z2 c2 c2 c2 | F4 f4- | f2 ed e4- | %9
w: Dis- cum-|ben- ti- bus|il- lis|un- de- cim|a- po-|* sti- lis,|ap- pa- ru-|it Je-|* * * sus,|
 e4 z2 e2- | edcB c4 | d4 z2 d2 | d2 d2 d2 d2- | dcBA B4 | A8 | z4 A4 | c4 c2 c2 | c4 G2 c2 | %18
w: _ Je-||sus, et|ex- pro- ba- vit|_ _ _ _ il-|lis,|in-|cre- du- li-|ta- tem et|
 B2 c2 d2 cB |"^-natural" AG c4 B2 | c4 G4 | B4 B4 | c6 G2 | B4 B4 | c6 G2 | B2 B2 A3 B | c4 A4 | %27
w: cor- dis du- * *|* * di- ci|em, quod|his qui|i- psum|vi- dis-|sent re-|sur- re- xis- *|se non|
 B2 B2 B4 | A4 z2 c2 | d2 d2 d4 | c2 A2 B2 c2 | F4 G4 | F8- | F8 | z8 | z8 | z8 | c6 c2 | %38
w: cre- di- dis-|sent, non|cre- di- dis-|sent, non cre- di-|dis- *|sent,|_||||et di-|
 d2 d2 e4 | c2 f2 d2 g2 | e2 c2 d4 | c4 f4- | f4 f4 | z2 c2 d2 d2 | e4 f4 | d4 c4 | z8 | %47
w: ce- bat il-|lis, di- ce- bat|il- * *|lis: I-|* te|in u- ni-|ver- sum|mun- dum,||
 z2 c2 d2 d2 | e4 c4 | d2 d2 e2 e2 | c4 d4 | e4 c2 f2- | fedc B2 c2 | A2 B2 G2 c2 | A2 B2 G4 | %55
w: et prae- di-|ca- te,|et prae- di- ca-|te E-|van- ge- *|* * * * * li-|um o- mni cre-|a- * tu-|
 F8- | F8 | z4 c4- | c2 c2 d2 e2 | f4 f4 | f2 f2 f3 e | d2 c4 B2 | c2 c2 d2 d2 | c4 A4 | %64
w: rae.|_|Qui|_ cre- di- de-|rit et|ba- pti- za- *|tus fu- e-|rit, et ba- pti-|za- tus|
 c3 B A2 G2 | A3 B G4 | F4 A4 | B8 | G8 | c8 | A4 c4 | d6 c2 | B4 c4 | A8 | G8 | z2 c2 cB AG | %76
w: fu- * * *|* * e-|rit, sal-|vus-|e-|rit,|sal- vus|e- *|||rit.|Al- le- * * *|
 A2 B4 A2 | F4 G4 | F4 z4 | c4 c4- | c2 A2 B2 c2 | A2 A2 F4 | z4 z2 f2 | f6 d2 | e2 f2 d2 d2 | %85
w: |* lu-|ia.|Qui ve-|* ro non cre-|di- de- rit,|qui|ve- ro|non cre- di- de-|
 B4 z2 c2 | c2 A2 B4 | c2 A2 B2 B2 | c4 f4- | f4 d4 | f4 e4 | d4 c4 | d8 | c8 || z8 | z8 | z8 | %97
w: rit, qui|ve- * ro|non cre- di- de-|rit, con-|* dem|na- *||bi-|tur.||||
 z8 | z8 | z8 | f4 f2 f2 | e2 c2 d2 e2 | f4 f4 | z2 c2 d2 e2 | f2 d2 e2 f2- | feed/c/ d4 | c4 A4 | %107
w: |||Si- gna e-|os qui n me|cre- dunt,|haec se- quen-|||tur: Per|
 A2 A2 A4 | c4 F4 | B4 B4 | c4 F4 | B4 B4 | c4 z2 c2 | d2 d2 d4 | A4 d4 | c4 z2 c2 | A2 A2 d4 | %117
w: no- men me-|um dae-|mo- ni-|a e-|ji- ci-|ent, lin-|guis lo- quent|no- *|vis, ser-|pen- tes tol-|
[M:3/2] c12- | c8 z4 | z12 | z8 c4 | c4 A4 B4 | c4 A4 B4 | B4 c8 | c4 d8 | c4 B8 | A4 G8 | F8 z4 | %128
w: lent.|_||Et|si quid lae-|ta- le bi-|be- rint,|non e-|is no-|* ce-|bit.|
 f4 f4 d4 |"^b" e4 f4 d4 |"^b""^b" e4 e4 f4- | f4 F4 G4 | A4 F4 G4 | G4 A8 | z8 f4 | g4 f8 | %136
w: Su- per ae-|gros ma- nus|im- po- nent|_ et be-|ne ha- be-|* unt,|et|be- ne|
 e4 d8 |[M:2/2] c4 c4- | c4 c4 | c8 | z4 z2 A2 | c2 A2 B4 | A4 z4 | z4 z2 A2 | c2 G2 B2 B2 | %145
w: ha- be-|bunt. I-|* ta-|que|D-|mi- nus Je-|sus|post-|quam lo- cu- tus|
 A2 A2 c4 | c4 c4- | c4 c4 | z4 f4 | f8 | c8 | c8 | z4 c4 | B2 d4 G2 | A4 A4 | z2 B2 B4 | %156
w: est e- is,|as- sum-|* ptus,|as-|sum-|ptus|est|in|coe- * *|* lum,|as- sum-|
 A4 z2 d2 | d4 d4 | c4 c4 | B2 c2 B2 c2- | cB A4 G2 | A8 | z4 d4 | d8 | c4 z2 c2 | d2 e2 f2 g2 | %166
w: ptus, as-|sum- ptus|est in|coe- * * *||lum,|et|se-|det ad|dex- tris _ _|
 c4 d4 | c4 z4 | c6 c2 | c4 A4 | z2 F2 B4 | c4 z2 c2 | c2 c2 A2 A2 | d2 d2 c4 | c8 | c4 c4 | %176
w: De- *|i.|Il- li|ve- ro|e- gres-|si prae-|di- ca- ve- runt|u- bi- que|Do-|mi- no|
 z2 c2 c2 c2 | d4 B4 | c6 c2 | c2 c2 c2 c2 | d4 B4 | c8 | d6 c2 | B4 A4 | G8 | F4 c4 | d4 d4 | %187
w: co- o- pe-|ran- te,|et ser-|mo- nem con- fir-|man- te|se-|quen- ti-|bus _|si-|gnis, se-|quen- ti-|
 c4 A4- | A4 B4 | c8 | F8 | G8 | F8- | F8 |] %194
w: bus si-|||||gnis.|_|
V:4
 z8 | F,6 F,2 | F,2 F,2 F,4 | F,4 D,2 D,2 | G,2 G,2 E,4 | F,6 F,2 |"^b" F,4 z4 | z4 F,4 | %8
w: |Dis- cum-|ben- ti- bus|il- lis un-|de- cim a-|po- sto-|lis,|ap-|
 F,2 F,2 C,4 | C4 A,2 C2- | CB,A,G, A,4 | G,4 G,4 | G,6 G,2 | G,2 G,2 G,4 | D,4 z4 | D,4 F,4 | %16
w: pa- ru- it|Je- sus, Je-||sus, et|ex- pro-|ba- vit il-|lis,|in- cre-|
 F,2 F,2 F,4 | C,2 F,2 E,2 F,2 | G,2 F,E, D,2 F,2- | F,E,D,C, D,2 D,2 | C,4 C,4 | B,,4 D,4 | %22
w: du- li- ta-|tem et cor- dis|du- * * * ri-|* * * * * ci-|em, quod|his qui|
 C,4 C,4 | B,,4 D,4 | C,4 C,4 | B,,2 B,,2 D,4 | C,4 F,4 | B,,2 B,,2 B,,4 | F,4 F,4 | B,2 B,2 B,4 | %30
w: i- psum|vi- dis-|sent re-|sur- re- xis-|se non|cre- di- dis-|sent, non|cre- di- dis-|
 F,2 A,2 G,2 F,2 | D,4 C,4 | F,8 | z4 F,4- | F,2 F,2 G,2 G,2 | A,4 F,2 B,2- | B,2 A,2 G,4 | F,8 | %38
w: ||sent,|et|_ di- ce- bat|il- * *||lis:|
 z8 | z8 | z8 | z4 F,4- | F,4 F,4- | F,4 z4 | z4 F,4 | G,2 G,2 A,4 | B,4 G,4 | A,4 z2 B,2 | %48
w: |||I-|* te|_|in|u- ni- ver-|sum mun-|dum et|
 G,2 C2 F,2 F,2 | B,2 G,2 C2 C2 | F,4 B,2 G,2 | C3 B, A,G, F,2- | F,2 B,2 G,2 A,2 | %53
w: prae- di- ca- te|E- van- ge- li-|um o- mni|cre- * * * a-|* tu- rae, o-|
 F,2 G,2 C,2 E,2 | F,2 B,,2 C,4 | F,4 z4 | C6 A,2 | B,2 G,2 F,4 | z8 | F,4 B,2 B,2 | A,2 F,2 B,4- | %61
w: mi cre- a- tu-||rae.|Qui cre-|di- de- rit||et ba- pti-|za- tus fu-|
 B,2 A,2 G,4 | F,4 z4 | z8 | C,8- | C,4 C,4 | F,4 F,4 | B,,8 | _E,8 | C,8 | F,8 | z4 D,4 | %72
w: * * e-|rit,||fu-|* e-|rit, sal-|vus|e-||rit.|Al-|
 G,4 C,4 | D,8 | G,4 F,4 | C,4 F,4- | F,2 G,2 E,2 F,2 | D,4 C,4 | z4 F,4 | F,8 | F,4 D,2 C,2 | %81
w: le- lu-|ia,|Al- *|le- *||lu- ia.|Qui|ve-|ro non cre-|
 F,2 F,2 F,4 | z8 | z2 B,2 B,4 | G,2 A,2 B,A,G,F, | G,2 G,2 F,4- | F,4 z4 | z8 | z4 F,4- | %89
w: di- de- rit,||qui ve-|ro non cre- * * *|di- de- rit,|_||con-|
 F,4 B,4- | B,4 C4 | G,4 A,4 | G,8 | C,8 || C4 C2 C2 | B,2 G,2 A,2 B,2 | C4 C4 | z2 G,2 A,2 B,2 | %98
w: * dem-|* na-||bi-|tur.|Si- gna e-|os qui in me|cre- dunt|haec se- quen-|
 C3 B, G,A, B,2- | B,A, F,2 G,4 | F,8 | z8 | z8 | z8 | z8 | z8 | z4 F,4 | F,2 F,2 F,4 | A,4 A,4 | %109
w: ||tur:||||||Per|no- men me-|um dar-|
 G,4 G,4 | F,4 A,4 | G,4 G,4 | F,4 z2 F,2 | B,,2 B,,2 B,,4 | F,4 B,,4 | F,4 z2 F,2 | F,2 F,2 B,,4 | %117
w: mo- ni-|a e-|ji- ci-|ent, lin-|guis lo- quent|no- *|vis, ser-|pen- tes tol-|
[M:3/2] F,12- | F,8 z4 | z12 | z12 | F,4 F,4 D,4 |"^b" E,4 F,4 D,4 |"^b""^b" E,4 E,4 F,4 | %124
w: lent.-|_|||Et si quid|lae- ta- le|bi- be- rint,|
 F,4 B,,8 |"^b" F,4 G,4 E,4 | F,4 C,8 | F,12 | z12 | z12 | z8 F,4 |"^b" F,4 D,4 E,4 | %132
w: non e-|is no- *|* ce-|bit.|||Su-|per ae- gros|
"^b" F,4 D,4 E,4 |"^b" E,4 F,4 F,4 | B,8 A,4 | G,4 B,8 | C4 G,8 |[M:2/2] C,4 F,4- | F,4 F,4 | %139
w: ma- nus im-|po- nent, et|be- ne|ha- be-||bunt. I-|* te-|
 F,4 z4 | z2 G,2 F,2 D,2 | C,D,E,F, G,2 D,2 | F,4 C,4 | z2 G,2 F,2 D,2 | C,D,E,F, G,2 D,2 | %145
w: que|Do- mi- nus|qui _ _ _ _ _|_ dem,|post- quam lo-|cu- * * * * tus|
 F,2 F,2 C,4- | C,4 z4 | F,4 F,4- | F,4 F,4 | z4 F,4 | F,4 F,4 | C,8- | C,8 | z8 | z8 | G,4 G,4 | %156
w: est e- is,|_|as- sum-|* ptus,|as-|sum- ptus|est,|_|||as- sum-|
 D,4 z2 B,2 | B,4 B,4 | F,3 G, A,4 | G,2 A,2 G,2 A,2- | A,G, F,2 E,4 | D,8 | z4 B,4 | B,8 | %164
w: ptus, as-|sum- ptus|est in coe-|lum, in coe- *||lum,|et|se-|
 F,4 F,2 A,2 | B,2 C2 B,A, C2 | A,4 G,4 | C,4 z4 | F,6 F,2 | F,4 F,4 | A,4 G,4 | F,4 z2 F,2 | %172
w: det ad dex-||tris De-|i.|Il- li|ve- ro|e- gres-|si pre-|
 F,2 F,2 F,2 F,2 | B,,2 B,,2 F,4 | z4 C,4- | C,2 C,2 C,4 | z4 F,4 | D,2 D,2 G,4 | C,4 z4 | z4 F,4 | %180
w: di- ca- ve- runt|u- bi- que|Do-|* mi- no|co-|o- pe- ran-|te,|con-|
 D,4 G,4 | C,4 F,4 | B,,4 B,,4 | _E,4 F,4 | C,8 | z4 F,4 | B,,4 B,,4 | F,8 | F,4 G,4 | E,4 F,4 | %190
w: fir- ma-|te se-|quen- ti-|bus si-|gnis,|se-|quen- ti-|bus|si- *||
 D,8 | C,8 | F,8- | F,8 |] %194
w: ||gnis.|_|

